app/assets/images/icons/active/thumbs-up.svg

<svg width="32" height="232" viewBox="0 0 32 232" xmlns="http://www.w3.org/2000/svg" xmlns:sketch="http://www.bohemiancoding.com/sketch/ns"><title>thumbs-up</title><g sketch:type="MSPage" fill="none"><path d="M8 135.05s.299.016.48.005c2.051-.098 4.385-3.902 4.545-4.936.151-.96.121-3.495.121-3.893 0-.397.233-1.83 2.04-.961 1.806.867 2.197 3.589 2.384 4.714.188 1.127-.586 3.37-.586 3.37s4.637-.048 6.209 0c1.715 2.134.473 4.133-.822 4.097.375.183.711.783.711.783s1.35 2.296-1.144 2.929c.035.116 1.367.747 1.103 1.669-.262.919-1.904 1.479-1.904 1.479s1.066.668.638 1.469c-.394.735-1.795 1.212-1.795 1.212l-9.671.013c-.305 0-.903-.954-1.604-.436l-.705-11.514" fill="#206FAC" sketch:type="MSShapeGroup"/><path d="M8 95.05s.299.016.48.005c2.051-.098 4.385-3.902 4.545-4.936.151-.96.121-3.495.121-3.893 0-.397.233-1.83 2.04-.961 1.806.867 2.197 3.589 2.384 4.714.188 1.127-.586 3.37-.586 3.37s4.637-.048 6.209 0c1.715 2.134.473 4.133-.822 4.097.375.183.711.783.711.783s1.35 2.296-1.144 2.929c.035.116 1.367.747 1.103 1.669-.262.919-1.904 1.479-1.904 1.479s1.066.668.638 1.469c-.394.735-1.795 1.212-1.795 1.212l-9.671.013c-.305 0-.903-.954-1.604-.436l-.705-11.514" fill="#fff" sketch:type="MSShapeGroup"/><path d="M8 55.05s.299.016.48.005c2.051-.098 4.385-3.902 4.545-4.936.151-.96.121-3.495.121-3.893 0-.397.233-1.83 2.04-.961 1.806.867 2.197 3.589 2.384 4.714.188 1.127-.586 3.37-.586 3.37s4.637-.048 6.209 0c1.715 2.134.473 4.133-.822 4.097.375.183.711.783.711.783s1.35 2.296-1.144 2.929c.035.116 1.367.747 1.103 1.669-.262.919-1.904 1.479-1.904 1.479s1.066.668.638 1.469c-.394.735-1.795 1.212-1.795 1.212l-9.671.013c-.305 0-.903-.954-1.604-.436l-.705-11.514" fill="#67737B" sketch:type="MSShapeGroup"/><path d="M8 15.05s.299.016.48.005c2.051-.098 4.385-3.902 4.545-4.936.151-.96.121-3.495.121-3.893 0-.397.233-1.83 2.04-.961 1.806.867 2.197 3.589 2.384 4.714.188 1.127-.586 3.37-.586 3.37s4.637-.048 6.209 0c1.715 2.134.473 4.133-.822 4.097.375.183.711.783.711.783s1.35 2.296-1.144 2.929c.035.116 1.367.747 1.103 1.669-.262.919-1.904 1.479-1.904 1.479s1.066.668.638 1.469c-.394.735-1.795 1.212-1.795 1.212l-9.671.013c-.305 0-.903-.954-1.604-.436l-.705-11.514" fill="#3A434E" sketch:type="MSShapeGroup"/></g></svg>

<?xml version="1.0" encoding="UTF-8" standalone="no"?>
<svg width="32px" height="232px" viewBox="0 0 32 232" version="1.1" xmlns="http://www.w3.org/2000/svg" xmlns:xlink="http://www.w3.org/1999/xlink" xmlns:sketch="http://www.bohemiancoding.com/sketch/ns">
    <title>thumbs-up</title>
    <description>Created with Sketch (http://www.bohemiancoding.com/sketch)</description>
    <defs></defs>
    <g id="Actions" stroke="none" stroke-width="1" fill="none" fill-rule="evenodd" sketch:type="MSPage">
        <path d="M8,135.05 C8,135.05 8.299,135.066 8.48,135.055 C10.531,134.957 12.865,131.153 13.025,130.119 C13.176,129.159 13.146,126.624 13.146,126.226 C13.146,125.829 13.379,124.396 15.186,125.265 C16.992,126.132 17.383,128.854 17.57,129.979 C17.758,131.106 16.984,133.349 16.984,133.349 C16.984,133.349 21.621,133.301 23.193,133.349 C24.908,135.483 23.666,137.482 22.371,137.446 C22.746,137.629 23.082,138.229 23.082,138.229 C23.082,138.229 24.432,140.525 21.938,141.158 C21.973,141.274 23.305,141.905 23.041,142.827 C22.779,143.746 21.137,144.306 21.137,144.306 C21.137,144.306 22.203,144.974 21.775,145.775 C21.381,146.51 19.98,146.987 19.98,146.987 C19.981,146.987 10.613,147 10.309,147 C10.004,147 9.406,146.046 8.705,146.564 L8,135.05" id="thumbs-up--lp-blue" fill="#206FAC" sketch:type="MSShapeGroup"></path>
        <path d="M8,95.05 C8,95.05 8.299,95.066 8.48,95.055 C10.531,94.957 12.865,91.153 13.025,90.119 C13.176,89.159 13.146,86.624 13.146,86.226 C13.146,85.829 13.379,84.396 15.186,85.265 C16.992,86.132 17.383,88.854 17.57,89.979 C17.758,91.106 16.984,93.349 16.984,93.349 C16.984,93.349 21.621,93.301 23.193,93.349 C24.908,95.483 23.666,97.482 22.371,97.446 C22.746,97.629 23.082,98.229 23.082,98.229 C23.082,98.229 24.432,100.525 21.938,101.158 C21.973,101.274 23.305,101.905 23.041,102.827 C22.779,103.746 21.137,104.306 21.137,104.306 C21.137,104.306 22.203,104.974 21.775,105.775 C21.381,106.51 19.98,106.987 19.98,106.987 C19.981,106.987 10.613,107 10.309,107 C10.004,107 9.406,106.046 8.705,106.564 L8,95.05" id="thumbs-up--white" fill="#FFFFFF" sketch:type="MSShapeGroup"></path>
        <path d="M8,55.05 C8,55.05 8.299,55.066 8.48,55.055 C10.531,54.957 12.865,51.153 13.025,50.119 C13.176,49.159 13.146,46.624 13.146,46.226 C13.146,45.829 13.379,44.396 15.186,45.265 C16.992,46.132 17.383,48.854 17.57,49.979 C17.758,51.106 16.984,53.349 16.984,53.349 C16.984,53.349 21.621,53.301 23.193,53.349 C24.908,55.483 23.666,57.482 22.371,57.446 C22.746,57.629 23.082,58.229 23.082,58.229 C23.082,58.229 24.432,60.525 21.938,61.158 C21.973,61.274 23.305,61.905 23.041,62.827 C22.779,63.746 21.137,64.306 21.137,64.306 C21.137,64.306 22.203,64.974 21.775,65.775 C21.381,66.51 19.98,66.987 19.98,66.987 C19.981,66.987 10.613,67 10.309,67 C10.004,67 9.406,66.046 8.705,66.564 L8,55.05" id="thumbs-up--body-grey" fill="#67737B" sketch:type="MSShapeGroup"></path>
        <path d="M8,15.05 C8,15.05 8.299,15.066 8.48,15.055 C10.531,14.957 12.865,11.153 13.025,10.119 C13.176,9.159 13.146,6.624 13.146,6.226 C13.146,5.829 13.379,4.396 15.186,5.265 C16.992,6.132 17.383,8.854 17.57,9.979 C17.758,11.106 16.984,13.349 16.984,13.349 C16.984,13.349 21.621,13.301 23.193,13.349 C24.908,15.483 23.666,17.482 22.371,17.446 C22.746,17.629 23.082,18.229 23.082,18.229 C23.082,18.229 24.432,20.525 21.938,21.158 C21.973,21.274 23.305,21.905 23.041,22.827 C22.779,23.746 21.137,24.306 21.137,24.306 C21.137,24.306 22.203,24.974 21.775,25.775 C21.381,26.51 19.98,26.987 19.98,26.987 C19.981,26.987 10.613,27 10.309,27 C10.004,27 9.406,26.046 8.705,26.564 L8,15.05" id="thumbs-up--title-grey" fill="#3A434E" sketch:type="MSShapeGroup"></path>
    </g>
</svg>
